app/images/icons/add-photo.svg

<svg fill="none" height="29" viewBox="0 0 29 29" width="29" xmlns="http://www.w3.org/2000/svg"><g stroke="#919191" stroke-linecap="round" stroke-linejoin="round" stroke-width="2.36646"><path d="m1.83984 8.76213v-5.19145c0-.95551.7746-1.7301 1.7301-1.7301h5.19031"/><path d="m27.7915 8.76165v-5.19146c0-.95551-.7746-1.7301-1.7301-1.7301h-5.1903"/><path d="m1.83984 20.8711v5.1903c0 .9555.7746 1.7301 1.7301 1.7301h5.19031"/><path d="m27.7915 20.8711v5.1903c0 .9555-.7746 1.7301-1.7301 1.7301h-5.1903"/><path clip-rule="evenodd" d="m14.8154 15.6808c2.6276 0 4.7578-2.1301 4.7578-4.7577 0-2.62769-2.1302-4.75782-4.7578-4.75782-2.6277 0-4.7578 2.13013-4.7578 4.75782 0 2.6276 2.1301 4.7577 4.7578 4.7577z" fill-rule="evenodd"/><path d="m22.1245 22.6011c-1.0849-3.1082-4.017-5.1902-7.3091-5.1902-3.292 0-6.22407 2.082-7.30905 5.1902"/></g></svg>

<svg width="29" height="29" viewBox="0 0 29 29" fill="none" xmlns="http://www.w3.org/2000/svg">
<path d="M1.83984 8.76213V3.57068C1.83984 2.61517 2.61444 1.84058 3.56994 1.84058H8.76025" stroke="#919191" stroke-width="2.36646" stroke-linecap="round" stroke-linejoin="round"/>
<path d="M27.7915 8.76165V3.57019C27.7915 2.61468 27.0169 1.84009 26.0614 1.84009H20.8711" stroke="#919191" stroke-width="2.36646" stroke-linecap="round" stroke-linejoin="round"/>
<path d="M1.83984 20.8711V26.0614C1.83984 27.0169 2.61444 27.7915 3.56994 27.7915H8.76025" stroke="#919191" stroke-width="2.36646" stroke-linecap="round" stroke-linejoin="round"/>
<path d="M27.7915 20.8711V26.0614C27.7915 27.0169 27.0169 27.7915 26.0614 27.7915H20.8711" stroke="#919191" stroke-width="2.36646" stroke-linecap="round" stroke-linejoin="round"/>
<path fill-rule="evenodd" clip-rule="evenodd" d="M14.8154 15.6808C17.443 15.6808 19.5732 13.5507 19.5732 10.9231C19.5732 8.29541 17.443 6.16528 14.8154 6.16528C12.1877 6.16528 10.0576 8.29541 10.0576 10.9231C10.0576 13.5507 12.1877 15.6808 14.8154 15.6808Z" stroke="#919191" stroke-width="2.36646" stroke-linecap="round" stroke-linejoin="round"/>
<path d="M22.1245 22.6011C21.0396 19.4929 18.1075 17.4109 14.8154 17.4109C11.5234 17.4109 8.59133 19.4929 7.50635 22.6011" stroke="#919191" stroke-width="2.36646" stroke-linecap="round" stroke-linejoin="round"/>
</svg>
